icon/fa/house-tsunami.svg

<svg xmlns="http://www.w3.org/2000/svg" viewBox="0 0 576 512"><!--! Font Awesome Free 6.1.2 by @fontawesome - https://fontawesome.com License - https://fontawesome.com/license/free (Icons: CC BY 4.0, Fonts: SIL OFL 1.1, Code: MIT License) Copyright 2022 Fonticons, Inc.--><path d="M184.4 96c23 0 44.9 5.1 63.7 14.3 16 7.4 23.8 26.5 16.3 42.5-8.3 16-26.5 22.9-42.5 15.5-11.3-6.2-24-8.3-37.5-8.3-48.9 0-89.3 39.5-89.3 88 0 39 26.5 72.2 62 83.7 10 2.8 22.5 4.3 34 4.3h1c27.5-.9 55-10.6 77.4-26.1 11.1-7.9 25.9-7.9 37 0 21.6 15.5 50 26.1 77.5 26.1 26.9 0 55.4-10.8 77.4-26.1h.1c11.9-8.5 28-7.8 39.2 1.7 14.3 11.9 32.5 21 50.6 25.2 17.2 4 27.9 21.3 23.9 38.5s-22.1 27.9-38.5 23.9c-24.5-5.8-44.8-16.6-58.2-25-29 15.5-61.5 25.8-94.5 25.8-31.9 0-60.6-9.9-80.4-18.9-5.9-2.6-11.1-5.3-15.6-7.7-4.5 2.4-9.7 5.1-15.6 7.7-19.8 9-48.5 18.9-80.4 18.9-1.8 0-3.7-.9-5.5-.1-.7-.8-1.4.1-2.1.1-14.6 0-28.8-2.1-42.2-5.9C53.52 372.1 0 291.6 0 200 0 87.99 95.18 0 209 0c23.8 0 46.8 3.823 68.2 10.9 16.8 5.54 25.9 23.64 20.4 40.42-5.6 16.78-23.7 25.89-40.4 20.35-15-4.95-32.1-7.67-48.2-7.67-56.4 0-104.1 29.82-128.19 72.5C108 111.4 144.4 96 184.4 96zm244.4-49.57c11.4-8.55 27-8.53 38.4.04l95.5 71.93c8 6.1 12.7 15.5 12.8 25.5l.3 144c0 2.9-.4 5.7-1.1 8.4-4.9-2.7-10.4-4.8-16.2-6.2-13.1-3-26.7-9.8-37.3-18.6-22.2-18.7-54.3-20.1-78-3.4-18 12.4-40.2 20.4-59.2 20.4-19.6 0-40.8-7.7-59.2-20.4-1.5-1.1-3.2-3-4.8-3.1V143.1c0-9.2 4.7-18.7 12.8-24.7l96-71.97zm32.6 375.47h.1c11.9-8.5 28-7.8 39.2 1.7 14.3 11.9 32.5 21 50.6 25.2 17.2 4 27.9 21.3 23.9 38.5s-22.1 27.9-38.5 23.9c-24.5-5.8-44.8-16.6-58.2-25-29 15.5-61.5 25.8-94.5 25.8-31.9 0-60.6-9.9-80.4-18.9-5.9-2.6-11.1-5.3-15.6-7.7-4.5 2.4-9.7 5.1-15.6 7.7-19.8 9-48.5 18.9-80.4 18.9-33.9 0-65.5-10.3-94.5-25.8-13.38 8.4-33.71 19.2-58.23 25-17.21 4-34.417-6.7-38.428-23.9-4.011-17.2 6.69-34.5 23.898-38.5 18.1-4.2 36.22-13.3 50.57-25.2 11.15-9.5 27.29-10.2 39.19-1.7h.1c22.1 15.3 50.5 26.1 77.4 26.1 27.5 0 55-10.6 77.5-26.1 11.1-7.9 25.9-7.9 37 0 21.6 15.5 50 26.1 77.5 26.1 26.9 0 55.4-10.8 77.4-26.1z"/></svg>

<svg xmlns="http://www.w3.org/2000/svg" viewBox="0 0 576 512" height="1em" width="1em">
<!--! Font Awesome Free 6.1.2 by @fontawesome - https://fontawesome.com License - https://fontawesome.com/license/free (Icons: CC BY 4.0, Fonts: SIL OFL 1.1, Code: MIT License) Copyright 2022 Fonticons, Inc.-->
  <path d="M184.4 96C207.4 96 229.3 101.1 248.1 110.3C264.1 117.7 271.9 136.8 264.4 152.8C256.1 168.8 237.9 175.7 221.9 168.3C210.6 162.1 197.9 160 184.4 160C135.5 160 95.1 199.5 95.1 248C95.1 287 121.6 320.2 157.1 331.7C167.1 334.5 179.6 336 191.1 336C192 336 192.1 336 192.1 336C219.6 335.1 247.1 325.4 269.5 309.9C280.6 302 295.4 302 306.5 309.9C328.1 325.4 356.5 336 384 336C410.9 336 439.4 325.2 461.4 309.9L461.5 309.9C473.4 301.4 489.5 302.1 500.7 311.6C515 323.5 533.2 332.6 551.3 336.8C568.5 340.8 579.2 358.1 575.2 375.3C571.2 392.5 553.1 403.2 536.7 399.2C512.2 393.4 491.9 382.6 478.5 374.2C449.5 389.7 417 400 384 400C352.1 400 323.4 390.1 303.6 381.1C297.7 378.5 292.5 375.8 288 373.4C283.5 375.8 278.3 378.5 272.4 381.1C252.6 390.1 223.9 400 192 400C190.2 400 188.3 399.1 186.5 399.9C185.8 399.1 185.1 400 184.4 400C169.8 400 155.6 397.9 142.2 394.1C53.52 372.1 .0006 291.6 .0006 200C.0006 87.99 95.18 0 209 0C232.8 0 255.8 3.823 277.2 10.9C294 16.44 303.1 34.54 297.6 51.32C292 68.1 273.9 77.21 257.2 71.67C242.2 66.72 225.1 64 209 64C152.6 64 104.9 93.82 80.81 136.5C108 111.4 144.4 96 184.4 96H184.4zM428.8 46.43C440.2 37.88 455.8 37.9 467.2 46.47L562.7 118.4C570.7 124.5 575.4 133.9 575.5 143.9L575.8 287.9C575.8 290.8 575.4 293.6 574.7 296.3C569.8 293.6 564.3 291.5 558.5 290.1C545.4 287.1 531.8 280.3 521.2 271.5C499 252.8 466.9 251.4 443.2 268.1C425.2 280.5 403 288.5 384 288.5C364.4 288.5 343.2 280.8 324.8 268.1C323.3 267 321.6 265.1 320 265V143.1C320 133.9 324.7 124.4 332.8 118.4L428.8 46.43zM461.4 421.9L461.5 421.9C473.4 413.4 489.5 414.1 500.7 423.6C515 435.5 533.2 444.6 551.3 448.8C568.5 452.8 579.2 470.1 575.2 487.3C571.2 504.5 553.1 515.2 536.7 511.2C512.2 505.4 491.9 494.6 478.5 486.2C449.5 501.7 417 512 384 512C352.1 512 323.4 502.1 303.6 493.1C297.7 490.5 292.5 487.8 288 485.4C283.5 487.8 278.3 490.5 272.4 493.1C252.6 502.1 223.9 512 192 512C158.1 512 126.5 501.7 97.5 486.2C84.12 494.6 63.79 505.4 39.27 511.2C22.06 515.2 4.853 504.5 .8422 487.3C-3.169 470.1 7.532 452.8 24.74 448.8C42.84 444.6 60.96 435.5 75.31 423.6C86.46 414.1 102.6 413.4 114.5 421.9L114.6 421.9C136.7 437.2 165.1 448 192 448C219.5 448 247 437.4 269.5 421.9C280.6 414 295.4 414 306.5 421.9C328.1 437.4 356.5 448 384 448C410.9 448 439.4 437.2 461.4 421.9H461.4z"/>
</svg>
